X:1156
T:Duke of Buccleugh's March
M:C
L:1/8
Q:1/2=66
Z:Jack Campin * www.campin.me.uk * 2009
K:D
d2d>d d3e  |d2(3(ede) f2z2|a2   a>a a2   gf |  edef         d2z2:|
f2f>f e2e>e|b2b>b     a2z2|gg (3gag ff (3fgf|(3abc' (3d'c'b a2z2 |
d2d>d d3e  |d2(3ede   f2z2|a2   a>a a2   gf |  edef         d2z2|]

